X:121 
T:Knocknagow 1  
B:CRE 3.029 (Cnoc na Gaibhne)
F:file ID: cre.3/121knock_g1
N:This and 'Knocknagow 2' are sometimes played as a
single 4-part tune.
Q:160
L:1/8
M:6/8
R:jig
K:Am
G|EAB cBc|EGG GED|EAB cBc|dcd ecA|
EAB cBc|EGG GAB|Aag edB|cAA A2:|
B|Aaa aga|ge^f gfg|Aab aec|de^f  gdB|
AB/A/a aga|ge^f gfg|e^fe dcB|cAA A2:|

%%%

